usr/share/icons/biglinux-icons-material-dark/16/actions/object-flip-hor.svg

<svg width="16" height="16" version="1.1" viewBox="0 0 16 16" xmlns="http://www.w3.org/2000/svg">
 <path d="m5 4-2.9922 3.0098c-0.0026007 2.34e-5 -0.0052119-2.34e-5 -0.0078125 0v0.0078125l-1 1.0059 4 3.9766v-3.0371c1.9984-0.013051 4.001 0.0043729 6 0.019531v3.0176l4-3.9766-1-1.0059v-0.017578c-0.005844-1.46e-5 -0.011734 1.47e-5 -0.017578 0l-2.9824-3v2.9941c-1.9994-0.0046844-4.0007-0.008749-6-0.0019531v-2.9922z" fill="#dedede"/>
</svg>

<svg xmlns="http://www.w3.org/2000/svg" width="16" height="16">
<style id="current-color-scheme" type="text/css">
.ColorScheme-Text{color:#dedede}
</style>
<path d="M5 4 2.008 7.01H2v.008L1 8.024 5 12V8.963c1.998-.013 4.001.004 6 .02V12l4-3.976-1-1.006V7h-.018L11 4v2.994c-2-.005-4-.009-6-.002z" class="ColorScheme-Text" style="fill:currentColor"/>
</svg>
